resources/svg/border-none.svg

<svg viewBox="0 0 15 15" fill="none" xmlns="http://www.w3.org/2000/svg" fill="currentColor"><path fill-rule="evenodd" clip-rule="evenodd" d="M2 2H1V1h1v1zm3 0H4V1h1v1zm3 0H7V1h1v1zm3 0h-1V1h1v1zm3 0h-1V1h1v1zM2 5H1V4h1v1zm6 0H7V4h1v1zm6 0h-1V4h1v1zM2 8H1V7h1v1zm3 0H4V7h1v1zm3 0H7V7h1v1zm3 0h-1V7h1v1zm3 0h-1V7h1v1zM2 11H1v-1h1v1zm6 0H7v-1h1v1zm6 0h-1v-1h1v1zM2 14H1v-1h1v1zm3 0H4v-1h1v1zm3 0H7v-1h1v1zm3 0h-1v-1h1v1zm3 0h-1v-1h1v1z" fill="currentColor"/></svg>

<svg width="15" height="15" viewBox="0 0 15 15" fill="none" xmlns="http://www.w3.org/2000/svg">
<path fill-rule="evenodd" clip-rule="evenodd" d="M2 2H1V1H2V2ZM5 2H4V1H5V2ZM8 2H7V1H8V2ZM11 2H10V1H11V2ZM14 2H13V1H14V2ZM2 5H1V4H2V5ZM8 5H7V4H8V5ZM14 5H13V4H14V5ZM2 8H1V7H2V8ZM5 8H4V7H5V8ZM8 8H7V7H8V8ZM11 8H10V7H11V8ZM14 8H13V7H14V8ZM2 11H1V10H2V11ZM8 11H7V10H8V11ZM14 11H13V10H14V11ZM2 14H1V13H2V14ZM5 14H4V13H5V14ZM8 14H7V13H8V14ZM11 14H10V13H11V14ZM14 14H13V13H14V14Z" fill="black"/>
</svg>
